spyder/images/light/run_cell.svg

<?xml version="1.0" encoding="UTF-8" standalone="no"?>
<svg
   xmlns:dc="http://purl.org/dc/elements/1.1/"
   xmlns:cc="http://creativecommons.org/ns#"
   xmlns:rdf="http://www.w3.org/1999/02/22-rdf-syntax-ns#"
   xmlns:svg="http://www.w3.org/2000/svg"
   xmlns="http://www.w3.org/2000/svg"
   xmlns:sodipodi="http://sodipodi.sourceforge.net/DTD/sodipodi-0.dtd"
   xmlns:inkscape="http://www.inkscape.org/namespaces/inkscape"
   width="24"
   height="24"
   viewBox="0 0 24 24"
   fill="none"
   version="1.1"
   id="svg132"
   sodipodi:docname="run current cell 2-35-1.svg"
   inkscape:version="1.0.2 (e86c8708, 2021-01-15)">
  <metadata
     id="metadata138">
    <rdf:RDF>
      <cc:Work
         rdf:about="">
        <dc:format>image/svg+xml</dc:format>
        <dc:type
           rdf:resource="http://purl.org/dc/dcmitype/StillImage" />
        <dc:title></dc:title>
      </cc:Work>
    </rdf:RDF>
  </metadata>
  <defs
     id="defs136" />
  <sodipodi:namedview
     pagecolor="#ffffff"
     bordercolor="#666666"
     borderopacity="1"
     objecttolerance="10"
     gridtolerance="10"
     guidetolerance="10"
     inkscape:pageopacity="0"
     inkscape:pageshadow="2"
     inkscape:window-width="689"
     inkscape:window-height="480"
     id="namedview134"
     showgrid="false"
     inkscape:zoom="5.0065913"
     inkscape:cx="12"
     inkscape:cy="12"
     inkscape:window-x="30"
     inkscape:window-y="23"
     inkscape:window-maximized="0"
     inkscape:current-layer="svg132"
     inkscape:document-rotation="0" />
  <path
     d="M14 12V22L22 17L14 12Z"
     fill="#007A5E"
     id="path128" />
  <path
     fill-rule="evenodd"
     clip-rule="evenodd"
     d="M4 7H20V13.3916L22 14.6416V7C22 5.89543 21.1046 5 20 5H4C2.89543 5 2 5.89543 2 7V17C2 18.1046 2.89543 19 4 19H12V17H4V7ZM18.8002 19H18.8L21.9999 17L22 17L18.8002 19Z"
     fill="#37414F"
     id="path130" />
</svg>

<svg xmlns="http://www.w3.org/2000/svg" width="24" height="24" fill="none"><path fill="#007A5E" d="M14 12v10l8-5-8-5Z"/><path fill="#37414F" fill-rule="evenodd" d="M4 7h16v6.392l2 1.25V7a2 2 0 0 0-2-2H4a2 2 0 0 0-2 2v10a2 2 0 0 0 2 2h8v-2H4V7Zm14.8 12 3.2-2-3.2 2Z" clip-rule="evenodd"/></svg>
